svg/puzzle_star.svg

<svg xmlns="http://www.w3.org/2000/svg" viewBox="0 0 24 24"><path d="m19 20.09 2.45 1.49-.65-2.81 2.2-1.88-2.89-.25L19 14l-1.13 2.64-2.87.25 2.18 1.88-.68 2.81zm4-6.59v.03A5.97 5.97 0 0 0 19 12c-3.31 0-6 2.69-6 6 0 .34.04.67.09 1h-.34a2.68 2.68 0 0 0-2.25-1.2c-1.5 0-2.7 1.2-2.7 2.7V22H4a2 2 0 0 1-2-2v-3.8h1.5c1.5 0 2.7-1.2 2.7-2.7S5 10.8 3.5 10.8H2V7c0-1.1.9-2 2-2h4V3.5a2.5 2.5 0 0 1 5 0V5h4a2 2 0 0 1 2 2v4h1.5a2.5 2.5 0 0 1 2.5 2.5"/></svg>

<?xml version="1.0" encoding="UTF-8"?><!DOCTYPE svg PUBLIC "-//W3C//DTD SVG 1.1//EN" "http://www.w3.org/Graphics/SVG/1.1/DTD/svg11.dtd"><svg xmlns="http://www.w3.org/2000/svg" xmlns:xlink="http://www.w3.org/1999/xlink" version="1.1" id="mdi-puzzle-star" width="24" height="24" viewBox="0 0 24 24"><path d="M19 20.09L21.45 21.58L20.8 18.77L23 16.89L20.11 16.64L19 14L17.87 16.64L15 16.89L17.18 18.77L16.5 21.58L19 20.09M23 13.5C23 13.5 23 13.5 23 13.53C21.94 12.58 20.54 12 19 12C15.69 12 13 14.69 13 18C13 18.34 13.04 18.67 13.09 19H12.75C12.27 18.27 11.44 17.8 10.5 17.8C9 17.8 7.8 19 7.8 20.5V22H4C2.9 22 2 21.11 2 20V16.2H3.5C5 16.2 6.2 15 6.2 13.5S5 10.8 3.5 10.8H2V7C2 5.9 2.9 5 4 5H8V3.5C8 2.12 9.12 1 10.5 1S13 2.12 13 3.5V5H17C18.1 5 19 5.89 19 7V11H20.5C21.88 11 23 12.12 23 13.5Z" /></svg>
